X: 1
T:The Eagles Whistle  " "
M:3/4
L:1/8
Q:80
C:Arranged by Arch Ott
S:Air
K:HP
|: {gcd}c2{g}ec{gBd}B{e}A|
{gcd}c2{g}ec{gBd}B{e}A|
{GdG}B2{G}Bc{gBd}B{e}A|  !
{GdG}B2{G}Bc{gBd}B{e}A| |
{gcd}c2{g}ec{gBd}B{e}A|
{gcd}c2{g}ec{g}B{d}c|  !
{e}A2{GAG}A{d}c{e}B{d}c|
{e}A2{GAG}A{d}c{gBd}B{e}A:| |:
{gfg}f2{gef}ecae|  !
{gfg}f2{gef}ec{gBd}BA|
{GdG}B2{G}Bc{gBd}B{e}A|
{GdG}B2{G}Bc{gBd}B{e}A| |  !
{gfg}f2{gef}ecae|
{gfg}f2{gef}ec{g}B{d}c|
{e}A2{GAG}A{d}c{e}B{d}c|  !
{e}A2{GAG}A{d}c{gBd}B{e}A:|
